X: 1866
T: Arlitrach
R: slip jig
M: 9/8
K: Amixolydian
|:c2A AcA AcA|c2A AcA BGB|c2A AcA AcA|BGB Bae fBB:|
|:c2e eaf ecA|c2A Aae fBB|c2e eaf ecA|BGB Bae fBB:|

